X: 15592
T: Gneevgullia
R: reel
M: 4/4
K: Edorian
|[G,3E3]F G z EF|GBAG FDDF|~E3 F GFGB|dBAd BAGF|
[G,3E3]F G2 (3DEF|GBAG FDDF|~E3 F GFGB|dBAd BEEf||
efed Bdeg|fd ~d2 dfaf|efed Bded|Bded BEEf|
efed Bdeg|fd ~d2 dfaf|bgaf gfec|dBAd BEED||
GBdg egdB|ADFD [D3A3] A|BGEF [G,3G3] B|dBAd BAGF|
GBdg egdB|ADFD [D3A3] A|BGEF [G,3G3] B|dBAd BEED||

